X: 16519
T: Haley's
R: jig
M: 6/8
K: Eminor
|:D|"Em"EGE GEG|BAB e2f|"Bm"gfe dcB|ABG FED|
"Em"~E3 ~G3|~B3 e2f|"D"gfe dcB|AGF "Em"E2:|
f|"G"~g3 GBd|edB ABd|"Bm"gfe dcB|ABG FED|
"Em"~g3 GBd|edB Aaf|"D"gfe dcB|AGF"Em" E2f|
"G"~g3 GBd|edB ABd|"Bm"gfe dcB|ABG FED|
"Em"~E3 ~G3|~B3 e2f|"D"gfe dcB|AGF "Em"E2||

